X: 1
T: Melting
Z: Thing
S: https://thesession.org/tunes/15355#setting28645
R: waltz
M: 3/4
L: 1/8
K: Gmaj
M:11/8
B2d A2B G2A EG | D2(B, B,)DE GDE GA | B2d A2B G2c Bd | B2(A A)dB AEA cd |
e2d e2g a2e gd | B2(A A)dB ADG Bd | g2a e2g d2c BG |1 D2(d d)BA GDE GA :|2 D2(d d)BA GBA Bd ||
e3 g3 eag fd |e3 a3 bag fd | e3 g3 eag fd | efg afd fag fd |
e3 g3 eag fd | e3 a3 bag fd | e3 g3 edc BG | c2(d d)BA GDE GA |]
